ui/icon/svg/rainy-sharp.svg

<svg viewBox="0 0 512 512" xmlns="http://www.w3.org/2000/svg"><path d="m364 336h-234c-29.5 0-54.92-7.83-73.53-22.64-21.24-16.92-32.47-42.01-32.47-72.56 0-26.66 10.08-49.8 29.14-66.91 15.24-13.68 36.17-23.21 59-26.84.06 0 .08 0 .09-.05 6.44-39 23.83-72.09 50.31-95.68a140.24 140.24 0 0 1 93.46-35.32c30.23 0 58.48 9.39 81.71 27.17a142.69 142.69 0 0 1 45.36 60.66c29.41 4.82 54.72 17.11 73.19 35.54 20.74 20.74 31.74 48.34 31.74 79.83 0 32.85-13.13 62.87-37 84.52-22.89 20.82-53.8 32.28-87 32.28zm-270.18 94.422 49.75-74.626 26.626 17.75-49.751 74.627zm47.996 48.007 81.752-122.629 26.625 17.75-81.751 122.628zm111.995-48.005 49.751-74.626 26.626 17.75-49.751 74.627zm47.997 48.006 81.752-122.627 26.625 17.75-81.751 122.628z"/></svg>

<svg xmlns="http://www.w3.org/2000/svg" class="ionicon" viewBox="0 0 512 512"><title>Rainy</title><path d="M364 336H130c-29.5 0-54.92-7.83-73.53-22.64C35.23 296.44 24 271.35 24 240.8c0-26.66 10.08-49.8 29.14-66.91 15.24-13.68 36.17-23.21 59-26.84.06 0 .08 0 .09-.05 6.44-39 23.83-72.09 50.31-95.68A140.24 140.24 0 01256 16c30.23 0 58.48 9.39 81.71 27.17a142.69 142.69 0 0145.36 60.66c29.41 4.82 54.72 17.11 73.19 35.54C477 160.11 488 187.71 488 219.2c0 32.85-13.13 62.87-37 84.52-22.89 20.82-53.8 32.28-87 32.28zm19-232.18zM93.82 430.422l49.75-74.626 26.626 17.75-49.751 74.627zM141.816 478.429L223.568 355.8l26.625 17.75-81.751 122.628zM253.811 430.424l49.751-74.626 26.626 17.75-49.751 74.627zM301.808 478.43l81.752-122.627 26.625 17.75-81.751 122.628z"/></svg>
